X: 3308
T: Bell's
R: waltz
M: 3/4
K: Gmajor
GE|:D2G3D|E2A3E|F2B2d2|c4BA|GD3G2|A4GA|B2g2f2|
d3Bef|g3fe2|f2d3B|c3edc|d2B2G2|Ecc2E2|Fdd2e2|B3BAF|1 G4GE:|2 G4ef||
|:g3fe2|e3fg2|f3dB2|B3cd2|e3AA2|A3Bc2|d2g2f2|d4cB|
c3de2|A3Bc2|d2g2B2|A4ED|Ecc2E2|Fdd2e2|B3BAF|1 G4ef:|2 G4zz||

